X: 35713
T: Saint Lawrence
R: jig
M: 6/8
K: Dmajor
|:B|ABA FAd|f2 d A2 d|c2 B GFG|B2 A F2 G|
ABA FAd|f2 d A2 d|c2 B GFG|d3 d2:|
|:f|a2 g B2 g|g2 f A2 d|cec ABc|dcB A2 f|
a2 g B2 g|g2 f A2 d|cec ABc|d3 d2:|

